X:1
T:Glory be to the Father
T:Thomas Tomkins (1572-1656)
T:ed. Ross Jallo
T:GLORY BE TO THE FATHER à 3
T:from Musica Deo sacra (London, 1668)
C:Thomas Tomkins
%%score [ 1 2 3 ]
L:1/8
Q:1/4=132
M:6/4
K:Gmin
V:1 treble nm="MEDIUS Alto"
V:2 treble-8 nm="TENOR Tenor"
V:3 bass nm="BASSUS Bass"
V:1
 D3 D G2 ^F4 B2 | A3 A G2 A4 A2 | A3 (G F2) =E4 E2 | F3 (GAB) c3 B B2- | B2 (AG A2) B6 | z6 z4 BB | %6
w: Glo- ry be to the|Fa- ther, and to the|Son, and _ to the|Son, and _ _ to the Ho-|* ly _ _ Ghost:|As it|
 B3 AGA B4 B2 | A4 G2 ^F4 d2 | c3 F B2 A4 d2 | c3 F B2- B2 (AG A2) | B4 B2 A3 D G2 | %11
w: was in the be- gin- ning,|and is now, and|e- ver shall be, world|with- out end, _ A- * *|men, and e- ver shall|
[M:9/4] ^F4 B2 A3 G G2- G2 (F=E F2) |[M:4/2] G8 z8 | z8 D2 =E2 (F2 ED | =E2 F2 G2 A2) F2 E4 D2 | %15
w: be, world with- out end. _ A- * *|men.|Al- le- lu- * *|* * * * ia, Al- le-|
 (=E2 D4 ^C2) D4 z4 | z8 A2 B2 (c2 BA | B2 c2 d2 e2 c6) d2 | D2 =E2 (F2 ED E2 F2 G2) A2 | %19
w: lu- * * ia,|Al- le- lu- * *|* * * * * ia,|Al- le- lu- * * * * * ia,|
 F3 G =E3 E FF B4 A2 | B2 c2 (d2 cB c2 d2 e2) f2 | d2 c2 B8 A4 | B2 (AG) F2 B2 A4 G2 (A2 | %23
w: Al- le- lu- ia, Al- le- lu- ia,|Al- le- lu- * * * * * ia,|Al- le- lu- ia,|Al- le- * lu- ia, Al- le- lu-|
 ^F2 D2 G8 F4) | !fermata!G16 |] %25
w: |ia.|
V:2
 z12 | A3 A d2 ^c4 f2 | =e3 e d2- d2 ^c(=B c2) | d4 !courtesy!=c2 !courtesy!_e4 d2 | c4 c2 d4 ff | %5
w: |Glo- ry be to the|Fa- ther, and _ to the _|Son, and to the|Ho- ly Ghost: As it|
 f3 _ede f3 f _e2 | d4 e2 d4 e2 | c3 d B2 A4 B2 | A4 d2 c3 F B2 | A4 d2 c4 c2 | d6 z4 B2 | %11
w: was in the be- gin- ning, is|now, in the be-|gin- ning, is now, is|now, and e- ver shall|be, world with- out|end, and|
[M:9/4] A3 D G2 ^F4 B2 A4 A2 |[M:4/2] G8 G2 A2 (B2 AG | A2 B2 c2 d2 B4) A4- | A2 G2 G4 (A4 G2 F2 | %15
w: e- ver shall be, world with- out|end. Al- le- lu- * *|* * * * * ia,|_ Al- le- lu- * *|
 G2 F2) =E4 D2 E2 (F2 ED | =E2 F2 G2 A2 F4) E2 F2 | (G2 A2 B2 c2) A8 | B4 A2 B2 (c2 BA B2) c2 | %19
w: * * ia, Al- le- lu- * *|* * * * * ia, Al-|le- * * * lu-|ia, Al- le- lu- * * * ia,|
 AA d4 ^c2 d4 =c4 | (F4 B8) A4 | B2 c2 (d2 cB c2 d2 e2 f2 | d8) c4 c4- | c4 B4 A8 | !fermata!G16 |] %25
w: Al- le- lu- ia, Al- le-|lu- * ia,|Al- le- lu- * * * * * *|* ia, Al-|* le- lu-|ia.|
V:3
 z6 D,3 D, G,2 | ^F,4 B,2 A,3 A, D,2 | ^C,3 C, D,2 G,2 (=E,2 A,2) | D,4 F,2 C,4 D,2 | %4
w: Glo- ry be|to the Fa- ther, the|Fa- ther, and to the _|Son, and to the|
 E,2 (C,2 F,2) B,,6 | z4 B,B, B,3 A,G,A, | B,3 B, C2 B,A, G,3 G, | A,2 ^F,2 G,2 D,4 B,,2 | %8
w: Ho- ly _ Ghost:|As it was in the be-|gin- ning, is now, in the be-|gin- ning, is now, and|
 F,3 F, D,2 F,4 B,,2 | F,4 D,2 E,2 (C,2 F,2) | B,,4 G,2 ^F,3 F, G,2 | %11
w: e- ver shall be, world|with- out end, A- *|men, and e- ver shall|
[M:9/4] D,4 G,,2 D,4 B,,2 C,2 (A,,2 D,2) |[M:4/2] =B,,4 C,2 D,2 (E,2 D,C, D,2 E,2 | %13
w: be, world with- out end. A- *|men. Al- le- lu- * * * *|
 F,2 G,2 E,4) D,8 | C,3 C, B,,4 A,,8 | z4 G,,2 A,,2 (B,,2 A,,G,, A,,2 B,,2 | C,2 D,2 B,,4) A,,8 | %17
w: * * * ia,|Al- le- lu- ia,|Al- le- lu- * * * *|* * * ia,|
 G,,3 G,, (G,6 ^F,=E, F,4) | G,4 D,3 D, (A,4 G,4) | D,4 A,4 D,4 (!courtesy!_E,2 F,2) | %20
w: Al- le- lu- * * *|ia, Al- le- lu- *|ia, Al- le- lu- *|
 D,6 D,D, (E,4 C,4) | B,,4 B,2 B,2 F,4 C4 | B,,2 C,2 (D,2 C,B,, C,2 D,2 E,2 F,2) | D,4 D,3 D, D,8 | %24
w: ia, Al- le- lu- *|ia, Al- le- lu- ia,|Al- le- lu- * * * * * *|ia, Al- le- lu-|
 !fermata!G,,16 |] %25
w: ia.|

